X:1
T:Baur, 75.75.77.75
T:Benjamin A. Baur (1897-1972)
T:Baur, 75.75.77.75
T:Public Domain
C:Benjamin A. Baur (1897-1972)
Z:Public Domain
%%score ( 1 2 ) ( 3 4 )
L:1/8
M:6/8
K:A
V:1 treble 
V:2 treble 
V:3 bass 
V:4 bass 
V:1
 [CE]>[CE][CE] [DF]2 [DG] | [DB]3 [CA]3 | [CA]2 [CF] [CA]2 [CF] | [DG]3- [DG]2 z | %4
 D>[DE][DF] [DG]2 [DB] | [CA]3 F2 E | [^DF]2 [DB] [DB]2 [Dc] | [=DB]3- [DB]2 z | %8
 [Ec]>[Ec][Ec] [DB]2 [EA] | [CE]3 [DE]3 | [EA]>[EA][EA] [EB]2 [Cc] | [DF]3 [DF]3 | %12
 [DF]>[EG][FA] [=FB]2 [FA] | [Ae]3 [Ec]3 | [Dd]2 [DF] [DG]2 [DE] | [CA]3- [CA]2 z |] %16
V:2
 x6 | x6 | x6 | x6 | D3/2 x9/2 | x3 c3 | x6 | x6 | x6 | x6 | x6 | x6 | x6 | x6 | x6 | x6 |] %16
V:3
 [A,,A,]>[A,,A,][A,,A,] [E,G,]2 E, | [A,,E,]3 [A,,E,]3 | [A,,E,]2 [A,,A,] [A,,E,]2 [A,,E,] | %3
 [B,,E,]3- [B,,E,]2 z | [E,G,]>[E,G,][E,A,] [E,B,]2 [E,G,] | [F,A,]3 [F,A,]3 | %6
 [B,,B,]2 [B,,B,] [B,,A,]2 [B,,A,] | [E,G,]3- [E,G,]2 z | [A,,A,]>[A,,A,][A,,A,] [E,G,]2 [C,A,] | %9
 [A,,A,]3 [B,,G,]3 | [C,A,]>[C,A,][C,A,] [B,,G,]2 [A,,A,] | [D,A,]3 [D,A,]3 | %12
 [D,A,]>[D,A,][D,A,] [D,D]2 [D,D] | [E,C]3 [F,^A,]3 | [B,,B,]2 [D,B,] [E,B,]2 [E,G,] | %15
 [A,,A,]3- [A,,A,]2 z |] %16
V:4
 x5 E, | x6 | x6 | x6 | x6 | x6 | x6 | x6 | x6 | x6 | x6 | x6 | x6 | x6 | x6 | x6 |] %16

